src/lib/packages/icons/src/assets/line/chat-times.svg

<svg width="24" height="24" viewBox="0 0 24 24" fill="none" xmlns="http://www.w3.org/2000/svg">
<path d="M13.7451 20.847C13.7951 21.258 13.5031 21.632 13.0911 21.682C11.3701 21.89 9.52804 21.592 7.92604 20.847C7.67804 20.729 7.36804 20.72 7.05104 20.822L4.56203 21.658C4.37803 21.719 4.1909 21.749 4.0049 21.749C3.5479 21.749 3.10408 21.569 2.76809 21.233C2.29408 20.76 2.13108 20.073 2.34108 19.441L3.1819 16.94C3.2799 16.633 3.27102 16.325 3.15602 16.082C2.56402 14.809 2.25392 13.399 2.25392 11.999C2.25392 6.62402 6.62697 2.25 12.002 2.25C17.378 2.25 21.751 6.62302 21.751 11.999C21.751 12.37 21.7301 12.729 21.6861 13.089C21.6371 13.5 21.2621 13.79 20.8511 13.743C20.4401 13.693 20.147 13.319 20.198 12.908C20.234 12.608 20.252 12.308 20.252 11.999C20.252 7.45102 16.5519 3.75 12.0029 3.75C7.45495 3.75 3.7549 7.45002 3.7549 11.999C3.7549 13.182 4.01791 14.373 4.51491 15.443C4.79091 16.024 4.82713 16.723 4.61013 17.406L3.76613 19.917C3.72413 20.042 3.7881 20.131 3.8301 20.173C3.8721 20.215 3.96193 20.279 4.08693 20.237L6.58498 19.398C7.27898 19.177 7.97994 19.211 8.56594 19.492C9.90794 20.115 11.4621 20.37 12.9131 20.194C13.3191 20.145 13.6951 20.436 13.7451 20.847ZM21.53 16.47C21.237 16.177 20.762 16.177 20.469 16.47L18.999 17.94L17.5291 16.47C17.2361 16.177 16.761 16.177 16.468 16.47C16.175 16.763 16.175 17.238 16.468 17.531L17.938 19.001L16.468 20.471C16.175 20.764 16.175 21.239 16.468 21.532C16.614 21.678 16.8061 21.752 16.9981 21.752C17.1901 21.752 17.3821 21.679 17.5281 21.532L18.9981 20.062L20.468 21.532C20.614 21.678 20.8061 21.752 20.9981 21.752C21.1901 21.752 21.3821 21.679 21.5281 21.532C21.8211 21.239 21.8211 20.764 21.5281 20.471L20.0581 19.001L21.5281 17.531C21.8231 17.238 21.823 16.762 21.53 16.47Z" fill="currentColor"/>
</svg>

<svg xmlns="http://www.w3.org/2000/svg" width="24" height="24" fill="none"><path fill="currentColor" d="M13.745 20.847a.75.75 0 0 1-.654.835 9.687 9.687 0 0 1-5.165-.835c-.248-.118-.558-.127-.875-.025l-2.489.836a1.745 1.745 0 0 1-1.794-.425 1.743 1.743 0 0 1-.427-1.792l.84-2.501c.099-.307.09-.615-.025-.858a9.74 9.74 0 0 1-.902-4.083c0-5.375 4.373-9.749 9.748-9.749 5.376 0 9.749 4.373 9.749 9.749 0 .371-.02.73-.065 1.09a.749.749 0 1 1-1.488-.181c.036-.3.054-.6.054-.909 0-4.548-3.7-8.249-8.25-8.249-4.547 0-8.247 3.7-8.247 8.249a8.23 8.23 0 0 0 .76 3.444c.276.581.312 1.28.095 1.963l-.844 2.511a.242.242 0 0 0 .064.256.243.243 0 0 0 .257.064l2.498-.839c.694-.221 1.395-.187 1.98.094a8.169 8.169 0 0 0 4.348.702.75.75 0 0 1 .832.653Zm7.785-4.377a.75.75 0 0 0-1.061 0l-1.47 1.47-1.47-1.47a.75.75 0 0 0-1.061 1.061l1.47 1.47-1.47 1.47a.75.75 0 0 0 1.06 1.061l1.47-1.47 1.47 1.47a.748.748 0 0 0 1.06 0 .75.75 0 0 0 0-1.061l-1.47-1.47 1.47-1.47a.748.748 0 0 0 .002-1.061Z"/></svg>
